X: 76
T: Father Francis Cameron
T: Reel, A
C: John Campbell
L: 1/8
M: C|
K: A
E2 | A2 cA FDDF | EA,CE FDDF | EAcA e2 cA | BEGB d2 cB |
     A2 cA FDDF | EA,CE FDDF | EAcA dcdf  |[1 ecdB A2 :| [2 ecdB A2 || 
cd | e2 cA eAce | f2 dB fBdf | eagb aecA  | 
     BEGB d2 cd | e2 cA eAce | f2 dB fBdf | eagb aecA  | BEGB A2 :|
D: Alisdair Fraser and Jody Stecher, The Driven Bow
D: George Wilson, Northern Melodies
D: Nightingale, The Coming Dawn
N: Father Francis Cameron, formerly parish priest in Mabou, Cape Breton Island, is himself a respected fiddle player.
